symbols/web/assistant_direction/materialsymbolsrounded/assistant_direction_wght300grad200_20px.svg

<svg xmlns="http://www.w3.org/2000/svg" height="20" width="20"><path d="M10 19.458q-1.958 0-3.688-.739-1.729-.74-3.01-2.031-1.281-1.292-2.021-3.011Q.542 11.958.542 10t.739-3.687q.74-1.73 2.031-3.011 1.292-1.281 3.011-2.021Q8.042.542 10 .542t3.688.739q1.729.74 3.01 2.021 1.281 1.281 2.021 3.011.739 1.729.739 3.687 0 1.958-.739 3.677-.74 1.719-2.021 3.011-1.281 1.291-3.01 2.031-1.73.739-3.688.739ZM10 10Zm-.521 6.417q.209.208.479.208.271 0 .48-.208l5.937-5.938q.208-.208.208-.5 0-.291-.208-.5l-5.937-5.937q-.209-.209-.48-.209-.27 0-.479.209L3.542 9.479q-.23.209-.23.5 0 .292.23.5Zm-1.104-6.334v1.584q0 .354-.281.635-.282.281-.656.281-.376 0-.657-.281t-.281-.656V9.167q0-.396.281-.677.281-.282.677-.282h3.354l-.354-.312q-.25-.229-.208-.552.042-.323.292-.573.312-.313.677-.333.364-.021.698.291l1.645 1.688q.334.354.323.76-.01.406-.343.74l-1.646 1.645q-.271.271-.646.271t-.646-.271q-.229-.229-.271-.531-.041-.302.125-.573l.375-.375Zm1.625 7.5q3.167 0 5.375-2.208T17.583 10q0-3.167-2.208-5.375T10 2.417q-3.167 0-5.375 2.208T2.417 10q0 3.167 2.208 5.375T10 17.583Z"/></svg>

<svg xmlns="http://www.w3.org/2000/svg" height="20" width="20"><path d="M10 19.458Q8.042 19.458 6.312 18.719Q4.583 17.979 3.302 16.688Q2.021 15.396 1.281 13.677Q0.542 11.958 0.542 10Q0.542 8.042 1.281 6.313Q2.021 4.583 3.312 3.302Q4.604 2.021 6.323 1.281Q8.042 0.542 10 0.542Q11.958 0.542 13.688 1.281Q15.417 2.021 16.698 3.302Q17.979 4.583 18.719 6.313Q19.458 8.042 19.458 10Q19.458 11.958 18.719 13.677Q17.979 15.396 16.698 16.688Q15.417 17.979 13.688 18.719Q11.958 19.458 10 19.458ZM10 10Q10 10 10 10Q10 10 10 10Q10 10 10 10Q10 10 10 10Q10 10 10 10Q10 10 10 10Q10 10 10 10Q10 10 10 10ZM9.479 16.417Q9.688 16.625 9.958 16.625Q10.229 16.625 10.438 16.417L16.375 10.479Q16.583 10.271 16.583 9.979Q16.583 9.688 16.375 9.479L10.438 3.542Q10.229 3.333 9.958 3.333Q9.688 3.333 9.479 3.542L3.542 9.479Q3.312 9.688 3.312 9.979Q3.312 10.271 3.542 10.479ZM8.375 10.083V11.667Q8.375 12.021 8.094 12.302Q7.812 12.583 7.438 12.583Q7.062 12.583 6.781 12.302Q6.5 12.021 6.5 11.646V9.167Q6.5 8.771 6.781 8.49Q7.062 8.208 7.458 8.208H10.812L10.458 7.896Q10.208 7.667 10.25 7.344Q10.292 7.021 10.542 6.771Q10.854 6.458 11.219 6.438Q11.583 6.417 11.917 6.729L13.562 8.417Q13.896 8.771 13.885 9.177Q13.875 9.583 13.542 9.917L11.896 11.562Q11.625 11.833 11.25 11.833Q10.875 11.833 10.604 11.562Q10.375 11.333 10.333 11.031Q10.292 10.729 10.458 10.458L10.833 10.083ZM10 17.583Q13.167 17.583 15.375 15.375Q17.583 13.167 17.583 10Q17.583 6.833 15.375 4.625Q13.167 2.417 10 2.417Q6.833 2.417 4.625 4.625Q2.417 6.833 2.417 10Q2.417 13.167 4.625 15.375Q6.833 17.583 10 17.583Z"/></svg>
